build/img/icons/Water.svg

<svg width="40" height="42" viewBox="0 0 40 42" fill="none" xmlns="http://www.w3.org/2000/svg">
<path fill-rule="evenodd" clip-rule="evenodd" d="M34.7899 13.2192L27.526 13.2309C26.7321 16.5633 23.5521 19.0581 20.0847 19.0581L9.39776 19.04C5.99723 18.8484 3.29095 16.1335 3.29095 12.8011C3.29095 9.97682 5.23227 7.59208 7.89998 6.81336C8.15647 3.16505 11.1199 0.285767 14.7454 0.285767C17.4472 0.285767 19.78 1.89112 20.9036 4.21889C21.5465 4.25773 22.17 4.38978 22.7562 4.59045C23.6626 3.67385 24.9161 3.07766 26.3156 2.99804C27.139 1.39269 28.8553 0.285767 30.8481 0.285767C33.5197 0.285767 35.7014 2.27175 35.8917 4.78724C37.8555 5.32452 39.2858 6.96871 39.2858 8.91715C39.2858 11.2151 37.293 13.0872 34.786 13.2192H34.7899ZM20.005 5.46434C18.979 2.5967 16.9773 1.58688 14.7248 1.58688C11.3307 1.58688 9.26084 4.70697 9.26084 8.05492C6.77311 8.25753 4.59395 10.4513 4.57723 12.9059C4.54766 17.2559 9.26084 17.757 9.26084 17.757H20.1888C22.9999 17.757 26.5978 14.857 26.4338 11.2902C26.3117 8.63492 23.8722 5.28956 20.0056 5.46434H20.005ZM34.7025 5.72327C34.7025 3.57869 33.2407 1.58041 30.841 1.58041C29.2468 1.58041 27.8326 2.22773 27.1062 4.06353C25.8077 4.01045 24.7406 4.46617 23.9693 5.13938C26.2005 6.40425 27.7111 8.82912 27.7111 11.6268C27.7111 11.7369 27.6983 11.834 27.6944 11.9376H34.6947C34.6947 11.9376 38.0258 11.6204 38.0053 8.83041C37.9924 7.25742 36.4529 5.85273 34.6947 5.72327H34.7025ZM11.6483 23.5893L11.0055 21.6474C10.9399 21.2959 11.2992 21.0661 11.6483 21.0001C11.9973 20.934 12.2255 21.2959 12.2911 21.6474L12.9339 23.5893C12.9995 23.9408 12.6402 24.1706 12.2911 24.2367C11.942 24.3027 11.7126 23.9408 11.6483 23.5893ZM13.5767 28.7679L12.9339 26.8259C12.8684 26.4745 13.2277 26.2447 13.5767 26.1786C13.9258 26.1126 14.154 26.4745 14.2196 26.8259L14.8624 28.7679C14.928 29.1194 14.5686 29.3492 14.2196 29.4152C13.8705 29.4813 13.641 29.1194 13.5767 28.7679ZM16.148 32.0045L16.7909 33.9465C16.8564 34.298 16.4971 34.5278 16.148 34.5938C15.799 34.6598 15.5708 34.298 15.5052 33.9465L14.8624 32.0045C14.7968 31.653 15.1562 31.4232 15.5052 31.3572C15.8543 31.2912 16.0825 31.653 16.148 32.0045ZM16.148 21.0001C16.4971 20.934 16.7253 21.2959 16.7909 21.6474L17.4337 23.5893C17.4992 23.9408 17.1399 24.1706 16.7909 24.2367C16.4418 24.3027 16.2136 23.9408 16.148 23.5893L15.5052 21.6474C15.4396 21.2959 15.799 21.0661 16.148 21.0001ZM18.0765 28.7679L17.4337 26.8259C17.3681 26.4745 17.7274 26.2447 18.0765 26.1786C18.4256 26.1126 18.6538 26.4745 18.7193 26.8259L19.3621 28.7679C19.4277 29.1194 19.0684 29.3492 18.7193 29.4152C18.3703 29.4813 18.1408 29.1194 18.0765 28.7679ZM20.6478 32.0045L21.2906 33.9465C21.3562 34.298 20.9968 34.5278 20.6478 34.5938C20.2987 34.6598 20.0705 34.298 20.005 33.9465L19.3621 32.0045C19.2966 31.653 19.6559 31.4232 20.005 31.3572C20.354 31.2912 20.5822 31.653 20.6478 32.0045ZM20.6478 21.0001C20.9968 20.934 21.225 21.2959 21.2906 21.6474L21.9334 23.5893C21.999 23.9408 21.6397 24.1706 21.2906 24.2367C20.9416 24.3027 20.7134 23.9408 20.6478 23.5893L20.005 21.6474C19.9394 21.2959 20.2987 21.0661 20.6478 21.0001ZM22.5763 28.7679L21.9334 26.8259C21.8679 26.4745 22.2272 26.2447 22.5763 26.1786C22.9253 26.1126 23.1535 26.4745 23.2191 26.8259L23.8619 28.7679C23.9275 29.1194 23.5681 29.3492 23.2191 29.4152C22.87 29.4813 22.6405 29.1194 22.5763 28.7679ZM24.5047 33.9465L23.8619 32.0045C23.7963 31.653 24.1557 31.4232 24.5047 31.3572C24.8538 31.2912 25.082 31.653 25.1475 32.0045L25.7904 33.9465C25.8559 34.298 25.4966 34.5278 25.1475 34.5938C24.7985 34.6598 24.569 34.298 24.5047 33.9465ZM9.18627 28.7679H11.5564L11.9228 30.0626H9.89144C9.18434 30.0626 8.29725 30.5545 7.91798 31.1565L2.69184 37.8239L2.00466 39.1251C2.00466 39.8397 2.58063 40.4197 3.2903 40.4197H34.1458C34.8554 40.4197 35.4314 39.8397 35.4314 39.1251L34.8465 37.8304L29.3953 31.1824C29.0418 30.5675 28.174 30.0626 27.4669 30.0626H26.2937L25.8347 28.7679H28.2132C28.9203 28.7679 29.7881 29.2728 30.1416 29.8878L36.5686 38.0052C36.665 38.1735 36.71 38.3334 36.7164 38.4777H36.7267V39.1251C36.7267 40.5543 35.5761 41.7143 34.1554 41.7143H3.29994C1.87931 41.7143 0.728656 40.5543 0.728656 39.1251V38.6706C0.688158 38.4894 0.73187 38.2693 0.882933 38.0298L7.22116 29.8619C7.5985 29.2599 8.48752 28.7679 9.1927 28.7679H9.18627Z" fill="#5CC773"/>
</svg>

<svg width="40" height="42" fill="none" xmlns="http://www.w3.org/2000/svg">
    <path fill-rule="evenodd" clip-rule="evenodd" d="m34.79 13.22-7.264.01c-.794 3.333-3.974 5.828-7.441 5.828L9.398 19.04c-3.4-.192-6.107-2.906-6.107-6.239 0-2.824 1.941-5.209 4.609-5.988.256-3.648 3.22-6.527 6.845-6.527 2.702 0 5.035 1.605 6.159 3.933.643.039 1.266.17 1.852.371a5.429 5.429 0 0 1 3.56-1.592c.823-1.605 2.54-2.712 4.532-2.712 2.672 0 4.853 1.986 5.044 4.501 1.963.538 3.394 2.182 3.394 4.13 0 2.298-1.993 4.17-4.5 4.302h.004zM20.005 5.463c-1.026-2.867-3.028-3.877-5.28-3.877-3.394 0-5.464 3.12-5.464 6.468-2.488.203-4.667 2.396-4.684 4.85-.03 4.35 4.684 4.852 4.684 4.852h10.928c2.81 0 6.409-2.9 6.245-6.467-.122-2.655-2.562-6-6.428-5.826h-.001zm14.698.26c0-2.145-1.462-4.144-3.862-4.144-1.594 0-3.008.648-3.735 2.484-1.298-.054-2.365.402-3.137 1.075a7.431 7.431 0 0 1 3.742 6.488c0 .11-.013.207-.017.31h7s3.332-.317 3.311-3.107c-.013-1.573-1.552-2.977-3.31-3.107h.008zM11.648 23.588l-.643-1.942c-.065-.351.294-.58.643-.647.35-.066.578.296.643.647l.643 1.942c.066.352-.294.582-.643.648-.349.066-.578-.296-.643-.648zm1.929 5.179-.643-1.942c-.066-.352.294-.581.643-.647.349-.066.577.296.643.647l.642 1.942c.066.351-.293.581-.642.647-.35.066-.579-.296-.643-.647zm2.571 3.236.643 1.943c.065.351-.294.58-.643.647-.349.066-.577-.296-.643-.648l-.643-1.941c-.065-.352.294-.582.643-.648.35-.066.577.296.643.648zm0-11.004c.35-.066.577.296.643.647l.643 1.942c.065.352-.294.582-.643.648-.35.066-.577-.296-.643-.648l-.643-1.942c-.065-.351.294-.58.643-.647zm1.928 7.768-.642-1.942c-.066-.352.293-.581.642-.647.35-.066.578.296.643.647l.643 1.942c.066.351-.294.581-.643.647-.349.066-.578-.296-.643-.647zm2.572 3.236.643 1.943c.065.351-.294.58-.643.647-.35.066-.578-.296-.643-.648l-.643-1.941c-.065-.352.294-.582.643-.648.349-.066.577.296.643.648zm0-11.004c.349-.066.577.296.643.647l.642 1.942c.066.352-.293.582-.642.648-.35.066-.578-.296-.643-.648l-.643-1.942c-.066-.351.294-.58.643-.647zm1.928 7.768-.643-1.942c-.065-.352.294-.581.643-.647.35-.066.578.296.643.647l.643 1.942c.066.351-.294.581-.643.647-.349.066-.579-.296-.643-.647zm1.929 5.178-.643-1.941c-.066-.352.294-.582.643-.648.349-.066.577.296.643.648l.642 1.941c.066.352-.293.582-.642.648-.35.066-.579-.296-.643-.648zM9.186 28.768h2.37l.367 1.295H9.89c-.707 0-1.594.492-1.973 1.094l-5.226 6.667-.687 1.301A1.29 1.29 0 0 0 3.29 40.42h30.856c.71 0 1.285-.58 1.285-1.295l-.584-1.295-5.452-6.648c-.353-.614-1.221-1.12-1.928-1.12h-1.173l-.46-1.294h2.38c.706 0 1.574.505 1.928 1.12l6.427 8.117c.096.168.141.328.147.473h.01v.647a2.58 2.58 0 0 1-2.57 2.59H3.3a2.58 2.58 0 0 1-2.571-2.59v-.454c-.04-.182.003-.402.154-.641l6.338-8.168c.377-.602 1.267-1.094 1.972-1.094h-.007z" fill="#5CC773"/>
</svg>
